icon/svg/ibc/axlUSDT.svg

<svg width="340" height="296" viewBox="0 0 340 296" fill="none" xmlns="http://www.w3.org/2000/svg">
<path fill-rule="evenodd" clip-rule="evenodd" d="M62.15 1.45L0.259998 131.45C0.0244886 131.934 -0.0501428 132.48 0.0470178 133.009C0.144178 133.538 0.408034 134.022 0.799998 134.39L167.95 294.56C168.425 295.015 169.057 295.27 169.715 295.27C170.373 295.27 171.005 295.015 171.48 294.56L338.63 134.4C339.022 134.032 339.286 133.548 339.383 133.019C339.48 132.49 339.406 131.944 339.17 131.46L277.28 1.46C277.08 1.0234 276.759 0.653553 276.355 0.394647C275.95 0.135742 275.48 -0.00126554 275 -1.02587e-06H64.45C63.9676 -0.00600265 63.4938 0.127705 63.0856 0.384992C62.6775 0.642278 62.3526 1.01215 62.15 1.45Z" fill="#50AF95"/>
<path fill-rule="evenodd" clip-rule="evenodd" d="M191.19 144.8C189.99 144.89 183.79 145.26 169.96 145.26C158.96 145.26 151.15 144.93 148.41 144.8C105.9 142.93 74.17 135.53 74.17 126.67C74.17 117.81 105.9 110.42 148.41 108.52V137.43C151.19 137.63 159.15 138.1 170.15 138.1C183.35 138.1 189.96 137.55 191.15 137.44V108.54C233.57 110.43 265.23 117.83 265.23 126.67C265.23 135.51 233.58 142.91 191.15 144.79L191.19 144.8ZM191.19 105.55V79.68H250.39V40.23H89.21V79.68H148.4V105.54C100.29 107.75 64.11 117.28 64.11 128.7C64.11 140.12 100.29 149.64 148.4 151.86V234.76H191.18V151.83C239.18 149.62 275.3 140.1 275.3 128.69C275.3 117.28 239.21 107.76 191.18 105.54L191.19 105.55Z" fill="white"/>
</svg>

<svg id="Layer_1" data-name="Layer 1" xmlns="http://www.w3.org/2000/svg" viewBox="0 0 339.43 295.27"><title>tether-usdt-logo</title><path d="M62.15,1.45l-61.89,130a2.52,2.52,0,0,0,.54,2.94L167.95,294.56a2.55,2.55,0,0,0,3.53,0L338.63,134.4a2.52,2.52,0,0,0,.54-2.94l-61.89-130A2.5,2.5,0,0,0,275,0H64.45a2.5,2.5,0,0,0-2.3,1.45h0Z" style="fill:#50af95;fill-rule:evenodd"/><path d="M191.19,144.8v0c-1.2.09-7.4,0.46-21.23,0.46-11,0-18.81-.33-21.55-0.46v0c-42.51-1.87-74.24-9.27-74.24-18.13s31.73-16.25,74.24-18.15v28.91c2.78,0.2,10.74.67,21.74,0.67,13.2,0,19.81-.55,21-0.66v-28.9c42.42,1.89,74.08,9.29,74.08,18.13s-31.65,16.24-74.08,18.12h0Zm0-39.25V79.68h59.2V40.23H89.21V79.68H148.4v25.86c-48.11,2.21-84.29,11.74-84.29,23.16s36.18,20.94,84.29,23.16v82.9h42.78V151.83c48-2.21,84.12-11.73,84.12-23.14s-36.09-20.93-84.12-23.15h0Zm0,0h0Z" style="fill:#fff;fill-rule:evenodd"/></svg>
